svgs/light/cubes-stacked.svg

<svg xmlns="http://www.w3.org/2000/svg" viewBox="0 0 448 512"><!--! Font Awesome Pro 6.6.0 by @fontawesome - https://fontawesome.com License - https://fontawesome.com/license (Commercial License) Copyright 2024 Fonticons, Inc. --><path d="M288 64l-64 0 0 64 64 0 0-64zM224 32l64 0c17.7 0 32 14.3 32 32l0 64c0 17.7-14.3 32-32 32l-64 0c-17.7 0-32-14.3-32-32l0-64c0-17.7 14.3-32 32-32zM98.7 234.7l32 55.4 55.4-32-32-55.4-55.4 32zM71 250.7c-8.8-15.3-3.6-34.9 11.7-43.7l55.4-32c15.3-8.8 34.9-3.6 43.7 11.7l32 55.4c8.8 15.3 3.6 34.9-11.7 43.7l-55.4 32c-15.3 8.8-34.9 3.6-43.7-11.7L71 250.7zM352 224l-64 0 0 64 64 0 0-64zm-96 0c0-17.7 14.3-32 32-32l64 0c17.7 0 32 14.3 32 32l0 64c0 17.7-14.3 32-32 32l-64 0c-17.7 0-32-14.3-32-32l0-64zm96 224l64 0 0-64-64 0 0 64zm-32-64c0-17.7 14.3-32 32-32l64 0c17.7 0 32 14.3 32 32l0 64c0 17.7-14.3 32-32 32l-64 0c-17.7 0-32-14.3-32-32l0-64zm-64 0l-64 0 0 64 64 0 0-64zm-64-32l64 0c17.7 0 32 14.3 32 32l0 64c0 17.7-14.3 32-32 32l-64 0c-17.7 0-32-14.3-32-32l0-64c0-17.7 14.3-32 32-32zM32 384l0 64 64 0 0-64-64 0zM0 384c0-17.7 14.3-32 32-32l64 0c17.7 0 32 14.3 32 32l0 64c0 17.7-14.3 32-32 32l-64 0c-17.7 0-32-14.3-32-32l0-64z"/></svg>

<svg xmlns="http://www.w3.org/2000/svg" viewBox="0 0 448 512"><!--! Font Awesome Pro 6.4.2 by @fontawesome - https://fontawesome.com License - https://fontawesome.com/license (Commercial License) Copyright 2023 Fonticons, Inc. --><path d="M288 64H224v64h64V64zM224 32h64c17.7 0 32 14.3 32 32v64c0 17.7-14.3 32-32 32H224c-17.7 0-32-14.3-32-32V64c0-17.7 14.3-32 32-32zM98.7 234.7l32 55.4 55.4-32-32-55.4-55.4 32zM71 250.7c-8.8-15.3-3.6-34.9 11.7-43.7l55.4-32c15.3-8.8 34.9-3.6 43.7 11.7l32 55.4c8.8 15.3 3.6 34.9-11.7 43.7l-55.4 32c-15.3 8.8-34.9 3.6-43.7-11.7L71 250.7zM352 224H288v64h64V224zm-96 0c0-17.7 14.3-32 32-32h64c17.7 0 32 14.3 32 32v64c0 17.7-14.3 32-32 32H288c-17.7 0-32-14.3-32-32V224zm96 224h64V384H352v64zm-32-64c0-17.7 14.3-32 32-32h64c17.7 0 32 14.3 32 32v64c0 17.7-14.3 32-32 32H352c-17.7 0-32-14.3-32-32V384zm-64 0H192v64h64V384zm-64-32h64c17.7 0 32 14.3 32 32v64c0 17.7-14.3 32-32 32H192c-17.7 0-32-14.3-32-32V384c0-17.7 14.3-32 32-32zM32 384v64H96V384H32zM0 384c0-17.7 14.3-32 32-32H96c17.7 0 32 14.3 32 32v64c0 17.7-14.3 32-32 32H32c-17.7 0-32-14.3-32-32V384z"/></svg>
